assets/Instagram.svg

<svg width="40" height="40" viewBox="0 0 40 40" fill="none" xmlns="http://www.w3.org/2000/svg">
<path d="M20 3.605C25.34 3.605 25.9733 3.625 28.0833 3.72167C33.5033 3.96833 36.035 6.54 36.2817 11.92C36.3783 14.0283 36.3967 14.6617 36.3967 20.0017C36.3967 25.3433 36.3767 25.975 36.2817 28.0833C36.0333 33.4583 33.5083 36.035 28.0833 36.2817C25.9733 36.3783 25.3433 36.3983 20 36.3983C14.66 36.3983 14.0267 36.3783 11.9183 36.2817C6.485 36.0333 3.96667 33.45 3.72 28.0817C3.62333 25.9733 3.60333 25.3417 3.60333 20C3.60333 14.66 3.625 14.0283 3.72 11.9183C3.96833 6.54 6.49333 3.96667 11.9183 3.72C14.0283 3.625 14.66 3.605 20 3.605ZM20 0C14.5683 0 13.8883 0.0233333 11.755 0.12C4.49167 0.453333 0.455 4.48333 0.121667 11.7533C0.0233333 13.8883 0 14.5683 0 20C0 25.4317 0.0233333 26.1133 0.12 28.2467C0.453333 35.51 4.48333 39.5467 11.7533 39.88C13.8883 39.9767 14.5683 40 20 40C25.4317 40 26.1133 39.9767 28.2467 39.88C35.5033 39.5467 39.55 35.5167 39.8783 28.2467C39.9767 26.1133 40 25.4317 40 20C40 14.5683 39.9767 13.8883 39.88 11.755C39.5533 4.49833 35.5183 0.455 28.2483 0.121667C26.1133 0.0233333 25.4317 0 20 0ZM20 9.73C14.3283 9.73 9.73 14.3283 9.73 20C9.73 25.6717 14.3283 30.2717 20 30.2717C25.6717 30.2717 30.27 25.6733 30.27 20C30.27 14.3283 25.6717 9.73 20 9.73ZM20 26.6667C16.3183 26.6667 13.3333 23.6833 13.3333 20C13.3333 16.3183 16.3183 13.3333 20 13.3333C23.6817 13.3333 26.6667 16.3183 26.6667 20C26.6667 23.6833 23.6817 26.6667 20 26.6667ZM30.6767 6.925C29.35 6.925 28.275 8 28.275 9.325C28.275 10.65 29.35 11.725 30.6767 11.725C32.0017 11.725 33.075 10.65 33.075 9.325C33.075 8 32.0017 6.925 30.6767 6.925Z" fill="white"/>
</svg>

<?xml version="1.0" encoding="utf-8"?>
<!-- Generator: Adobe Illustrator 26.5.2, SVG Export Plug-In . SVG Version: 6.00 Build 0)  -->
<svg version="1.1" id="Layer_1" xmlns="http://www.w3.org/2000/svg" xmlns:xlink="http://www.w3.org/1999/xlink" x="0px" y="0px"
	 viewBox="0 0 40 40" style="enable-background:new 0 0 40 40;" xml:space="preserve">
<path d="M20,3.6c5.3,0,6,0,8.1,0.1c5.4,0.2,8,2.8,8.2,8.2c0.1,2.1,0.1,2.7,0.1,8.1c0,5.3,0,6-0.1,8.1c-0.2,5.4-2.8,8-8.2,8.2
	c-2.1,0.1-2.7,0.1-8.1,0.1c-5.3,0-6,0-8.1-0.1c-5.4-0.2-8-2.8-8.2-8.2C3.6,26,3.6,25.3,3.6,20c0-5.3,0-6,0.1-8.1
	C4,6.5,6.5,4,11.9,3.7C14,3.6,14.7,3.6,20,3.6z M20,0c-5.4,0-6.1,0-8.2,0.1C4.5,0.5,0.5,4.5,0.1,11.8C0,13.9,0,14.6,0,20
	s0,6.1,0.1,8.2c0.3,7.3,4.4,11.3,11.6,11.6C13.9,40,14.6,40,20,40s6.1,0,8.2-0.1c7.3-0.3,11.3-4.4,11.6-11.6C40,26.1,40,25.4,40,20
	s0-6.1-0.1-8.2C39.6,4.5,35.5,0.5,28.2,0.1C26.1,0,25.4,0,20,0z M20,9.7C14.3,9.7,9.7,14.3,9.7,20S14.3,30.3,20,30.3
	S30.3,25.7,30.3,20C30.3,14.3,25.7,9.7,20,9.7z M20,26.7c-3.7,0-6.7-3-6.7-6.7c0-3.7,3-6.7,6.7-6.7s6.7,3,6.7,6.7
	C26.7,23.7,23.7,26.7,20,26.7z M30.7,6.9c-1.3,0-2.4,1.1-2.4,2.4s1.1,2.4,2.4,2.4c1.3,0,2.4-1.1,2.4-2.4S32,6.9,30.7,6.9z"/>
</svg>
